images/github.svg

<svg viewBox="0 0 512 512" xmlns="http://www.w3.org/2000/svg" xmlns:xlink="http://www.w3.org/1999/xlink" fill="#E5E5E6" overflow="hidden"><path d="M256 32C132.3 32 32 134.9 32 261.7 32 363.2 96.2 449.2 185.2 479.6 186.448 479.871 187.723 480.005 189 480 197.3 480 200.5 473.9 200.5 468.6 200.5 463.1 200.3 448.7 200.2 429.5 192.79 431.237 185.21 432.143 177.6 432.2 134.5 432.2 124.7 398.7 124.7 398.7 114.5 372.2 99.8 365.1 99.8 365.1 80.3 351.4 99.7 351 101.2 351L101.3 351C123.8 353 135.6 374.8 135.6 374.8 146.8 394.4 161.8 399.9 175.2 399.9 184.06 399.723 192.784 397.678 200.8 393.9 202.8 379.1 208.6 369 215 363.2 165.3 357.4 113 337.7 113 249.7 113 224.6 121.7 204.1 136 188.1 133.7 182.3 126 158.9 138.2 127.3 139.836 126.908 141.518 126.74 143.2 126.8 151.3 126.8 169.6 129.9 199.8 150.9 236.495 140.633 275.305 140.633 312 150.9 342.2 129.9 360.5 126.8 368.6 126.8 370.282 126.74 371.964 126.908 373.6 127.3 385.8 158.9 378.1 182.3 375.8 188.1 390.1 204.2 398.8 224.7 398.8 249.7 398.8 337.9 346.4 357.3 296.5 363 304.5 370.1 311.7 384.1 311.7 405.5 311.7 436.2 311.4 461 311.4 468.5 311.4 473.9 314.5 480 322.8 480 324.144 480.006 325.484 479.872 326.8 479.6 415.9 449.2 480 363.1 480 261.7 480 134.9 379.7 32 256 32Z" fill="#000000"/></svg>

<svg xmlns="http://www.w3.org/2000/svg" fill="#e5e5e6"  viewBox="0 0 512 512"><link xmlns="" type="text/css" id="dark-mode" rel="stylesheet" href=""/><style xmlns="" type="text/css" id="dark-mode-custom-style"/><title>ionicons-v5_logos</title><path d="M256,32C132.3,32,32,134.9,32,261.7c0,101.5,64.2,187.5,153.2,217.9a17.56,17.56,0,0,0,3.8.4c8.3,0,11.5-6.1,11.5-11.4,0-5.5-.2-19.9-.3-39.1a102.4,102.4,0,0,1-22.6,2.7c-43.1,0-52.9-33.5-52.9-33.5-10.2-26.5-24.9-33.6-24.9-33.6-19.5-13.7-.1-14.1,1.4-14.1h.1c22.5,2,34.3,23.8,34.3,23.8,11.2,19.6,26.2,25.1,39.6,25.1a63,63,0,0,0,25.6-6c2-14.8,7.8-24.9,14.2-30.7-49.7-5.8-102-25.5-102-113.5,0-25.1,8.7-45.6,23-61.6-2.3-5.8-10-29.2,2.2-60.8a18.64,18.64,0,0,1,5-.5c8.1,0,26.4,3.1,56.6,24.1a208.21,208.21,0,0,1,112.2,0c30.2-21,48.5-24.1,56.6-24.1a18.64,18.64,0,0,1,5,.5c12.2,31.6,4.5,55,2.2,60.8,14.3,16.1,23,36.6,23,61.6,0,88.2-52.4,107.6-102.3,113.3,8,7.1,15.2,21.1,15.2,42.5,0,30.7-.3,55.5-.3,63,0,5.4,3.1,11.5,11.4,11.5a19.35,19.35,0,0,0,4-.4C415.9,449.2,480,363.1,480,261.7,480,134.9,379.7,32,256,32Z"/></svg>
